static/pic/update.svg

<?xml version="1.0" encoding="UTF-8"?>
<svg width="37px" height="42px" viewBox="0 0 37 42" version="1.1" xmlns="http://www.w3.org/2000/svg" xmlns:xlink="http://www.w3.org/1999/xlink">
    <!-- Generator: Sketch 39.1 (31720) - http://www.bohemiancoding.com/sketch -->
    <title>update</title>
    <desc>Created with Sketch.</desc>
    <defs></defs>
    <g id="Page-1" stroke="none" stroke-width="1" fill="none" fill-rule="evenodd">
        <g id="user" transform="translate(-190.000000, -389.000000)" fill="#FFFFFF">
            <g id="update" transform="translate(189.000000, 389.000000)">
                <g id="Group-2-Copy" transform="translate(28.404994, 24.173745) scale(-1, 1) translate(-28.404994, -24.173745) translate(18.904994, 7.173745)" stroke="#FFFFFF" stroke-width="0.6">
                    <path d="M18.3825517,33.9114941 L0.87962963,27.6001686 L0.87962963,5.02040488 L18.3825517,11.3317304 L18.3825517,33.9114941 Z M17.5967513,32.2156155 L2.20560858,26.53877 L2.20560858,7.20912376 L17.5967513,12.8859693 L17.5967513,32.2156155 Z" id="Combined-Shape"></path>
                    <rect id="Rectangle" transform="translate(7.485748, 3.081623) rotate(70.000000) translate(-7.485748, -3.081623) " x="6.81291076" y="-3.58967061" width="1.34567368" height="13.3425876"></rect>
                </g>
                <g id="Group-2-Copy-2" transform="translate(0.633340, 7.173745)" stroke="#FFFFFF" stroke-width="0.6">
                    <path d="M18.3825517,33.9114941 L0.87962963,27.6001686 L0.87962963,5.02040488 L18.3825517,11.3317304 L18.3825517,33.9114941 Z M17.5967513,32.2156155 L2.20560858,26.53877 L2.20560858,7.20912376 L17.5967513,12.8859693 L17.5967513,32.2156155 Z" id="Combined-Shape"></path>
                    <rect id="Rectangle" transform="translate(7.485748, 3.081623) rotate(70.000000) translate(-7.485748, -3.081623) " x="6.81291076" y="-3.58967061" width="1.34567368" height="13.3425876"></rect>
                </g>
                <path d="M18.1922125,2.40413695 L14.8290157,4.67264185 L14,3.44357554 L18.9381293,0.112765281 L19.0141904,8.2600593e-14 L19.0597506,0.0307306964 L19.1053107,8.48210391e-14 L19.1813718,0.112765281 L24.1195011,3.44357554 L23.2904854,4.67264185 L19.9712387,2.4337817 L19.9712387,14.2841741 L18.1922125,14.2841741 L18.1922125,2.40413695 Z" id="Combined-Shape"></path>
            </g>
        </g>
    </g>
</svg>

<svg width="37" height="42" viewBox="0 0 37 42" xmlns="http://www.w3.org/2000/svg"><title>update</title><g fill="none" fill-rule="evenodd"><g transform="translate(-190 -389)" fill="#FFF"><g transform="translate(189 389)"><g transform="matrix(-1 0 0 1 37.905 7.174)" stroke="#FFF" stroke-width=".6"><path d="M18.383 33.911L.88 27.601V5.02l17.503 6.31v22.58zm-.786-1.695L2.206 26.539V7.209l15.39 5.677v19.33z"/><path transform="rotate(70 7.486 3.082)" d="M6.813 -3.59H8.158999999999999V9.753H6.813z"/></g><g transform="translate(.633 7.174)" stroke="#FFF" stroke-width=".6"><path d="M18.383 33.911L.88 27.601V5.02l17.503 6.31v22.58zm-.786-1.695L2.206 26.539V7.209l15.39 5.677v19.33z"/><path transform="rotate(70 7.486 3.082)" d="M6.813 -3.59H8.158999999999999V9.753H6.813z"/></g><path d="M18.192 2.404L14.83 4.673 14 3.443l4.938-3.33.076-.113.046.03.045-.03.076.113 4.939 3.33-.83 1.23-3.319-2.24v11.851h-1.779V2.404z"/></g></g></g></svg>
